X:1
T:[ID 2-17]
T:[ID 2-17]
L:1/8
M:4/4
K:C
V:1 treble 
V:1
 Bezecug adade | %1
"^onigs Quadrille\n[T:Bezeichnung standardisiert: Konigs Quadrille;][T:Quadrillge [mit Trio%5d][T:In dieser Quelle auch als: K\" g uadg e |] %2
[K:D][M:2/4] dd/d/ de | ff/f/ fg | ad' ad' | a/b/a/g/ f/g/f/e/ | dd/d/ de | ff/f/ fg | %8
 af (b/a/)(g/f/) | ee/e/ e2 :: (A/B/c/d/) | ee/e/ ed/e/ | ff/f/ f2 | d'd'/d/ d'c'/d'/ | %14
 e'e'/e'/ e'2 | bb b/d'/c'/b/ | a/b/a/g/ fg | f/g/a/b/ a/g/f/e/ | dd/d/ d2 :| %19
[K:G][M:2/4]"^Trio" !fermata![G,DBg]2 d2 | d/e/d/c/ Bc | dgfe | e2 d2 | c/d/c/B/ AA | B/c/B/A/ GG | %25
 A/B/A/G/ FF | GG G2 :: ddde | fffg | aaab |"^[sic]" !fermata![ac']8 | gb/g/ Bc | d/e/d/c/ BB | %33
 c/d/c/B/ AF | GG G2 :| %35

